!!!OTL: 1009. Sonnen- und Regenliedchen. / [Als Ringelreigen der Kinder im Bergischen gebraucht.]
!!!ARE: Europa, Mitteleuropa, Deutschland, Bergisches Land
!!!SCT: K1009
!!!TXL: @@DE
!!!YEM: Copyright 1995, estate of Helmut Schaffrath.
**kern	**text
*clefG2	*
*M2/4	*
*k[f#]	*
*G:	*
=1	=1
{8dd	Blau-
8dd	-e,
8dd	blau-
8ee	-e
=2	=2
4dd	Wol-
8b}	-ken!
{8g	Ma-
=3	=3
8dd	-ri-
8dd	-a
8dd	hat
8ee	ge-
=4	=4
4dd	-mol-
8b	-ken
8r}	.
=5	=5
{8dd	ſie-
8dd	-ben
8dd	Küh'
8dd	in
=6	=6
8ee	ei-
8ee	-nem
4ee}	Stall.
=7	=7
{8dd	Jung-
8cc	-fer
8b	Ca-
8cc	-tha-
=8	=8
4dd	-ri-
8b	-na.
8r}	.
==	==
!!!AGN: Kinder -, Natur -, Regen - Lied
!!!ONB: ESAC (Essen Associative Code) Database: KINDER
!!!AMT: simple duple
!!!AIN: vox
!!!EED: Helmut Schaffrath
!!!EEV: 1.0
!!Erk I. 3, 44. Mannhardt 7 und 388. Simrock Nr. 369.
!!!GTL: VI. Das Kind im Verkehr mit der Natur. C. Das Kind und die Naturerscheinungen. (Wetterliedchen)
!!!URL-scan: https://archive.org/details/DeutschesKinderliedUndKinderspiel/page/205/mode/1up
!!!ENC: Anna Maria Matuszewska
!!!EEV: 2024/30/08
*-	*-
